Illustrative_Not Protected VM.svg

<?xml version="1.0" encoding="UTF-8"?><svg id="Layer_1" xmlns="http://www.w3.org/2000/svg" viewBox="0 0 20 20"><path d="M10.8874.1685l8.0747,3.0815c.6269.2392,1.0513.8226,1.0376,1.4883-.0311,1.5053-.2306,4.3141-1.1922,6.8271-1.4176,3.7046-4.7333,7.4781-8.6694,8.4138-.1281.0304-.2621.0274-.3889-.0075-4.2816-1.1782-7.376-4.8867-8.6534-8.4063C.1925,9.0762.0203,6.2443.0001,4.732c-.0088-.6628.4137-1.2426,1.0373-1.4822L9.0527.1705c.59-.2267,1.2441-.2274,1.8347-.002Z" fill="#001531" stroke-width="0"/><path d="M10.8874.1685l8.0747,3.0815c.6269.2392,1.0513.8226,1.0376,1.4883-.0311,1.5053-.2306,4.3141-1.1922,6.8271-1.4176,3.7046-4.7333,7.4781-8.6694,8.4138-.1281.0304-.2621.0274-.3889-.0075-4.2816-1.1782-7.376-4.8867-8.6534-8.4063C.1925,9.0762.0203,6.2443.0001,4.732c-.0088-.6628.4137-1.2426,1.0373-1.4822L9.0527.1705c.59-.2267,1.2441-.2274,1.8347-.002Z" fill="rgba(255,255,255,.9)" stroke-width="0"/><path d="M10.843.6601l7.671,2.9274c.5955.2273.9987.7815.9857,1.4138-.0295,1.4301-.2191,4.0984-1.1326,6.4857-1.3467,3.5194-4.4966,7.1043-8.236,7.9931-.1216.0289-.2489.0261-.3694-.007-4.0675-1.1194-7.0072-4.6425-8.2207-7.9861-.8582-2.3646-1.0217-5.0549-1.0409-6.4916-.0084-.6297.393-1.1805.9855-1.4081L9.1.662c.5605-.2153,1.1819-.216,1.743-.0019Z" fill="none" stroke="#001531"/><path d="M7.1189,6.192c-.256-.2559-.6709-.2559-.9269,0-.256.2559-.256.6709,0,.9269l2.8811,2.881-2.8809,2.8809c-.2559.2559-.2559.6709,0,.9268.256.256.6709.256.9269,0l2.8809-2.8808,2.881,2.8808c.2559.256.6709.256.9269,0s.2559-.6709,0-.9268l-2.881-2.8809,2.8811-2.881c.256-.2559.256-.6709,0-.9269-.2559-.2559-.6709-.2559-.9269,0l-2.8811,2.881-2.8811-2.881Z" fill="#001531" stroke-width="0"/></svg>

<svg id="Not_Protected_VM" data-name="Not Protected VM" xmlns="http://www.w3.org/2000/svg" viewBox="0 0 20 20"><path d="M10.8874.1685,18.9621,3.25A1.57,1.57,0,0,1,20,4.7382a21.3488,21.3488,0,0,1-1.1922,6.8271c-1.4176,3.7046-4.7333,7.4781-8.6694,8.4138a.7844.7844,0,0,1-.3889-.0075,13.5544,13.5544,0,0,1-8.6534-8.4063A22.0763,22.0763,0,0,1,0,4.732,1.5766,1.5766,0,0,1,1.0375,3.25L9.0527.1705A2.5671,2.5671,0,0,1,10.8874.1685Z" fill="#252a3a"/><path d="M10.8874.1685,18.9621,3.25A1.57,1.57,0,0,1,20,4.7382a21.3488,21.3488,0,0,1-1.1922,6.8271c-1.4176,3.7046-4.7333,7.4781-8.6694,8.4138a.7844.7844,0,0,1-.3889-.0075,13.5544,13.5544,0,0,1-8.6534-8.4063A22.0763,22.0763,0,0,1,0,4.732,1.5766,1.5766,0,0,1,1.0375,3.25L9.0527.1705A2.5671,2.5671,0,0,1,10.8874.1685Z" fill="#fff" fill-opacity="0.9"/><path d="M10.5825.9532l8.0747,3.0815a.73.73,0,0,1,.4942.6863,20.5234,20.5234,0,0,1-1.1373,6.5461c-1.3527,3.5352-4.4876,7.0319-8.0547,7.89A12.7174,12.7174,0,0,1,1.8942,11.281,21.2552,21.2552,0,0,1,.8485,4.721a.7362.7362,0,0,1,.4956-.6871L9.3594.9546A1.7115,1.7115,0,0,1,10.5825.9532Zm.3049-.7847L18.9621,3.25A1.57,1.57,0,0,1,20,4.7382a21.3488,21.3488,0,0,1-1.1922,6.8271c-1.4176,3.7046-4.7333,7.4781-8.6694,8.4138a.7844.7844,0,0,1-.3889-.0075,13.5544,13.5544,0,0,1-8.6534-8.4063A22.0763,22.0763,0,0,1,0,4.732,1.5766,1.5766,0,0,1,1.0375,3.25L9.0527.1705A2.5671,2.5671,0,0,1,10.8874.1685ZM13.8079,6.192a.6553.6553,0,0,0-.9267,0h0L10,9.073,7.1191,6.1924a.6554.6554,0,1,0-.9269.9269h0L9.0729,10,6.192,12.8807a.6554.6554,0,0,0,.9269.9268L10,10.9267l2.8814,2.8813a.6554.6554,0,0,0,.9269-.9268L10.9267,10l2.8812-2.8811a.6513.6513,0,0,0,.0123-.9211l-.0023-.0024Z" fill="#252a3a" fill-rule="evenodd"/></svg>
